X: 17
T: No_11_First_Initiation_Song.krn
N: Derived from No_11_First_Initiation_Song.krn
%%abc-version 2.0
%%abcx-abcm2ps-target-version 5.9.1 (29 Sep 2008)
%%abc-creator hum2abc beta
%%abcx-conversion-date 2019/03/15 08:29:13
%%humdrum-veritas 3494350075
%%humdrum-veritas-data 4044525594
%%linebreak <none>
%%barnumbers 0
L: 1/4
M: 4/4
%%staves {1 2}
V: 1 clef=bass
V: 2 clef=bass
K: Ab
[V:1] [K:clef=bass][M:4/4]CCC/C/C | 
[V:2] [K:clef=bass][M:4/4]G,,/G,,/G,,/G,,/ G,,/G,,/G,,/G,,/ | 
[V:1] C2C2 | 
[V:2] z4 | 
[V:1] CCCB, | 
[V:2] z4 | 
[V:1] CCC/C/B, | 
[V:2] z4 | 
[V:1] B,2B,2 | 
[V:2] z4 | 
[V:1] B,/A,/A,A,F, | 
[V:2] z4 | 
[V:1] CCC/C/B, | 
[V:2] z4 | 
[V:1] B,2B,2 | 
[V:2] z4 | 
[V:1] A,A,A,F, | 
[V:2] z4 | 
[V:1] A,B,A,/A,/F, | 
[V:2] z4 | 
[V:1] F,2F,2 | 
[V:2] z4 | 
[V:1] F,CCC |]  
[V:2] z4 |]  



